X:54
T:Old Man Killed with a Cough,The. RHu. 054
S:R.Hughes MS,1823,Whitchurch,Shrops.
R:Jig
A:Whitchurch, Shropshire
Z:Neil Brookes 2006
M:6/8
L:1/8
Q:3/8=120
K:G
GAB BAB|GBd def|gfe dcB|cAA A2B|!
GAB BAB|GBd def|gfe dec|BGGG3:|!
|:f|gfg efg|afa def|gfe dcB|cAAA2B|!
GAB BAB|GBd def|gfe dec|BGG G2:|

